!!!!SEGMENT: pl-wtm--r-730-23-m_moniuszko-stanislaw--wilja-i-litwinka.krn
!!!cenid: 18xx:1703
!!!COM: Moniuszko, Stanisław
!!!COM-rismid: pe30008351
!!!CDT: 1819/05/05-1872/06/04
!!!CNT: Polish
!!!OTL: Wilja i Litwinka
!!!PDT:
!!!AGN: Secular
!!!SMS-siglum: PL-Wtm
!!!SMS-shelfmark: R 730/23/M
!!!SMS-shelfwork: W
!!!SMS-variant:
!!!SMS-altvar:
!!!NIFC-rismid: 1001099835
!!!URL-scan: http://repozytorium.nifc.pl/skany/pl-wtm-nut--r730m-1-43
!!!ONB-nifc: Skan 0026-0027, No. 775
!!!AIN: 1 forte 1 vox
!!!key:
**kern	**kern	**dynam	**kern	**text	**dynam
*part2	*part2	*part2	*part1	*part1	*part1
*staff3	*staff2	*	*staff1	*staff1	*
*Iforte	*Iempty	*	*Ivox	*	*
*I"[Fortepian]	*	*	*I"[Głos]	*	*
*I'[pf]	*	*	*I'[S]	*	*
*clefF4	*clefG2	*	*clefG2	*	*
*k[f#c#g#d#]	*k[f#c#g#d#]	*	*k[f#c#g#d#]	*	*
*E:	*E:	*	*E:	*	*
*M4/4	*M4/4	*	*M4/4	*	*
*met(c)	*met(c)	*	*met(c)	*	*
=1	=1	=1	=1	=1	=1
*^	*	*	*	*	*
*	*	*Xtuplet	*	*	*	*
!	!	!	!LO:DY:rj	!LO:TX:a:i:t="Wilija i Litwinka.	!	!
(2E/	1EE\	(12g#/L	p	1r	.	.
.	.	12e/	.	.	.	.
.	.	12B/J)	.	.	.	.
.	.	(12g#/L	.	.	.	.
.	.	12e/	.	.	.	.
.	.	12B/J)	.	.	.	.
4D#/	.	(12a/L	.	.	.	.
.	.	12f#/	.	.	.	.
.	.	12B/J)	.	.	.	.
(<4C#/	.	(12a#X/L	.	.	.	.
.	.	12f##X/	.	.	.	.
.	.	12B/J)	.	.	.	.
=2	=2	=2	=2	=2	=2	=2
8BB/))	[1EE\	(12b/L	.	1r	.	.
.	.	12g#/	.	.	.	.
8r	.	.	.	.	.	.
.	.	12B/J)	.	.	.	.
(4E/	.	(12g#/L	.	.	.	.
.	.	12e/	.	.	.	.
.	.	12B/J)	.	.	.	.
4D#/	.	(12a/L	.	.	.	.
.	.	12f#/)	.	.	.	.
.	.	12B/J	.	.	.	.
4C#/)	.	(12a#X/L	.	.	.	.
.	.	12f##X/	.	.	.	.
.	.	12B/J)	.	.	.	.
=3	=3	=3	=3	=3	=3	=3
(2BB/	1EE\_	(12b/L	.	2b/	Wi-	.
.	.	12g#/	.	.	.	.
.	.	12B/J)	.	.	.	.
.	.	(12b/L	.	.	.	.
.	.	12g#/	.	.	.	.
.	.	12B/J)	.	.	.	.
4D#/	.	12a/L	.	4a/	-li-	.
.	.	(12f#/	.	.	.	.
.	.	12B/J)	.	.	.	.
4E/)	.	12g#/L	.	4g#/	-ja	.
.	.	(12e/	.	.	.	.
.	.	12B/J)	.	.	.	.
=4	=4	=4	=4	=4	=4	=4
(2BB/	1EE\_	(12g#/L	.	2g#/	na-	.
.	.	12e/	.	.	.	.
.	.	12B/J)	.	.	.	.
.	.	12g#/L	.	.	.	.
.	.	(12e/	.	.	.	.
.	.	12B/J)	.	.	.	.
4D#/	.	12f#/L	.	4f#/	-szych	.
.	.	(12B/	.	.	.	.
.	.	12A/J)	.	.	.	.
4E/)	.	(12e/L	.	4e/	stru-	.
.	.	12B/	.	.	.	.
.	.	12G#/J)	.	.	.	.
=5	=5	=5	=5	=5	=5	=5
(2.BB/	1EE\_	(12d#/L	.	2d#/	-mie-	.
.	.	12B/	.	.	.	.
.	.	12F#/J)	.	.	.	.
.	.	12f#/L	.	.	.	.
.	.	(12d#/	.	.	.	.
.	.	12B/J)	.	.	.	.
.	.	(12g#/L	.	4f#/	-ni	.
.	.	12e/	.	.	.	.
.	.	12B/J)	.	.	.	.
4D#/)	.	(12a/L	.	4a/	ro-	.
.	.	12f#/	.	.	.	.
.	.	12B/J)	.	.	.	.
=6	=6	=6	=6	=6	=6	=6
2D#/	1EE\_	(12a/L	.	2a/	-dzi-	.
.	.	12f#/)	.	.	.	.
.	.	12B/J	.	.	.	.
.	.	12a/L	.	.	.	.
.	.	(12f#/	.	.	.	.
.	.	12B/J)	.	.	.	.
2E/	.	(12g#/L	.	4g#/	-ca	.
.	.	12e/)	.	.	.	.
.	.	12B/J	.	.	.	.
.	.	(12g#/L	.	4r	.	.
.	.	12e/	.	.	.	.
.	.	12B/J)	.	.	.	.
!!LO:LB:g=original
=7	=7	=7	=7	=7	=7	=7
[1E/	1EE\]	(12a/L	.	2a/	Dno	.
.	.	12e/	.	.	.	.
.	.	12c#/J)	.	.	.	.
.	.	(12a/L	.	.	.	.
.	.	12e/	.	.	.	.
.	.	12c#/J)	.	.	.	.
.	.	(12a/L	.	4e/	ma	.
.	.	12e/	.	.	.	.
.	.	12c#/J)	.	.	.	.
.	.	(12a/L	.	4f#/	zło-	.
.	.	12e/	.	.	.	.
.	.	12cn/J)	.	.	.	.
=8	=8	=8	=8	=8	=8	=8
1E/]	(>4EE\	(12g#/L	.	2.g#/	-ci-	.
.	.	12e/)	.	.	.	.
.	.	12B/J	.	.	.	.
.	4GG#\	(12g#/L	.	.	.	.
.	.	12e/	.	.	.	.
.	.	12B/J)	.	.	.	.
.	4AA\	(12g#/L	.	.	.	.
.	.	12e/	.	.	.	.
.	.	12cn/J)	.	.	.	.
.	4AA#X\)	(12g#/L	.	4g#/	-ste	.
.	.	12e/	.	.	.	.
.	.	12c#X/J)	.	.	.	.
=9	=9	=9	=9	=9	=9	=9
*2\right	*	*	*	*	*	*
2BB\	2BB/	(12g#/L	.	4g#/	i	.
.	.	12e/	.	.	.	.
.	.	12B/J)	.	.	.	.
.	.	(12g#/L	.	8f##X/L	Nie-	.
.	.	12e/	.	.	.	.
.	.	.	.	8g#/J	.	.
.	.	12B/J)	.	.	.	.
(<4Cn\	(>4Cn/	(12f#/L	.	4a/	-bies-	.
.	.	12d#/)	.	.	.	.
.	.	12A/J	.	.	.	.
4ryy	4BB/)	(12d#/L	.	4d#/	-kie	.
.	.	12A/	.	.	.	.
.	.	12F#/J)	.	.	.	.
*v	*v	*	*	*	*	*
=10-	=10	=10	=10	=10	=10
4EE/)	(12e/L	.	4.e/	li-	.
.	12B/	.	.	.	.
.	12G#/J)	.	.	.	.
(4C#X/	(12e/L	.	.	.	.
.	12A#X/	.	.	.	.
.	.	.	16f#/LL	.	.
.	12F#/J)	.	.	.	.
.	.	.	16e/JJ	.	.
2BB/)	(12d#/L	.	4d#/	-ca,	.
.	12B/	.	.	.	.
.	12Fn/J)	.	.	.	.
.	(12f#/L	.	4r	.	.
.	12d#/	.	.	.	.
.	12B/J)	.	.	.	.
=11	=11	=11	=11	=11	=11
*^	*	*	*	*	*
2BB/	[1EE\	(12b/L	.	2b/	Pie-	.
.	.	12g#/	.	.	.	.
.	.	12B/J)	.	.	.	.
.	.	(12b/L	.	.	.	.
.	.	12g#/	.	.	.	.
.	.	12B/J)	.	.	.	.
4D#/	.	(12a#X/L	.	4a#X/	-kna	.
.	.	12f##X/	.	.	.	.
.	.	12B/J)	.	.	.	.
4C#/	.	(12an/L	.	4an/	Li-	.
.	.	12f#X/	.	.	.	.
.	.	12B/J)	.	.	.	.
=12	=12	=12	=12	=12	=12	=12
2E/	1EE\]	(12g#/L	.	(2g#/	-twin-	.
.	.	12e/	.	.	.	.
.	.	12B/J)	.	.	.	.
.	.	(12g#/L	.	.	.	.
.	.	12e/	.	.	.	.
.	.	12B/J)	.	.	.	.
4D#/	.	(12f#/L	.	4f#/)	.	.
.	.	12B/	.	.	.	.
.	.	12A/J)	.	.	.	.
4E/	.	(12e/L	.	4e/	-ka	.
.	.	12B/	.	.	.	.
.	.	12G#/J)	.	.	.	.
=13	=13	=13	=13	=13	=13	=13
!	!	!LO:N:vis=3	!	!	!	!
2.D#/	1EE\	(12d#/L	.	4d#/	co	.
.	.	12B/	.	.	.	.
.	.	12F#/J)	.	.	.	.
.	.	(12f#/L	.	4f#/	jey	.
.	.	12d#/	.	.	.	.
.	.	12B/J)	.	.	.	.
.	.	(12g#/L	.	4g#/	czer-	.
.	.	12e/	.	.	.	.
.	.	12B/J)	.	.	.	.
4D#/	.	(12a/L	.	4a/	-pa	.
.	.	12f#/	.	.	.	.
.	.	12B/J)	.	.	.	.
!!LO:LB:g=original
=14	=14	=14	=14	=14	=14	=14
2D#/	1EE\	(12a/L	.	(2a/	wo-	.
.	.	12f#/	.	.	.	.
.	.	12B/J)	.	.	.	.
.	.	(12a/L	.	.	.	.
.	.	12f#/	.	.	.	.
.	.	12B/J)	.	.	.	.
2E/	.	(12g#/L	.	4g#/)	-dy	.
.	.	12e/	.	.	.	.
.	.	12B/J)	.	.	.	.
.	.	(12g#/L	.	4r	.	.
.	.	12e/	.	.	.	.
.	.	12B/J)	.	.	.	.
=15	=15	=15	=15	=15	=15	=15
1D#/	2DD#\	(12f#/L	.	2g#/	Czy-	.
.	.	12B#X/	.	.	.	.
.	.	12G#/J)	.	.	.	.
.	.	(12f#/L	.	.	.	.
.	.	12B#/)	.	.	.	.
.	.	12G#/J	.	.	.	.
.	2GG#\	(12f#/L	.	4a#X/	-ste	.
.	.	12B#/	.	.	.	.
.	.	12G#/J)	.	.	.	.
.	.	(12f#/L	.	4b#X/	ma	.
.	.	12B#/	.	.	.	.
.	.	12G#/J)	.	.	.	.
=16	=16	=16	=16	=16	=16	=16
1C#/	1CC#\	(12e/L	.	2cc#/	ser-	.
.	.	12c#/	.	.	.	.
.	.	12A/J)	.	.	.	.
.	.	(12e/L	.	.	.	.
.	.	12c#/	.	.	.	.
.	.	12A/J)	.	.	.	.
.	.	12e/L	.	4b#X/	-ce,	.
.	.	(12c#/	.	.	.	.
.	.	12G#/J)	.	.	.	.
.	.	(12e/L	.	4cc#/	slicz-	.
.	.	12c#/	.	.	.	.
.	.	12G#/J)	.	.	.	.
*v	*v	*	*	*	*	*
=17	=17	=17	=17	=17	=17
*	*	*	*2\right	*	*
2AA/	12f##X/L	.	2ee\	-niey-	.
.	(12c#/	.	.	.	.
.	12F#/J)	.	.	.	.
.	12f##/L	.	.	.	.
.	(12c#/	.	.	.	.
.	12F#/J)	.	.	.	.
2E\	12d#/L	.	4dd#\	-sze	.
.	(12c#/	.	.	.	.
.	12F#/J)	.	.	.	.
.	12d#/L	.	4cc#\	ja-	.
.	(12c#/	.	.	.	.
.	12F#/J)	.	.	.	.
=18	=18	=18	=18	=18	=18
1GG#/	(12d#/L	.	2cc#\	-go-	.
.	12B#X/	.	.	.	.
.	12G#/J)	.	.	.	.
.	(12d#/L	.	.	.	.
.	12B#/	.	.	.	.
.	12G#/J)	.	.	.	.
.	12g#/L	.	4b#X\	-dy.	.
.	(12d#/	.	.	.	.
.	12B#/J)	.	.	.	.
.	12g#/L	.	4r	.	.
.	(12d#/	.	.	.	.
.	12B#/J)	.	.	.	.
=19	=19	=19	=19	=19	=19
[1C#/	(12g#/L	.	2cc#\	Wi-	.
.	12e#X/	.	.	.	.
.	12B/J)	.	.	.	.
.	(12g#/L	.	.	.	.
.	12e#/	.	.	.	.
.	12B/J)	.	.	.	.
.	(12g#/L	.	4g#/	-li-	.
.	12e#/	.	.	.	.
.	12B/J)	.	.	.	.
.	(12g#/L	.	4cc#\	-ja	.
.	12e#/	.	.	.	.
.	12B/J)	.	.	.	.
=20	=20	=20	=20	=20	=20
1C#/_	(12f#/L	.	2b\	w mi-	.
.	12c#/	.	.	.	.
.	12A/J)	.	.	.	.
.	(12f#/L	.	.	.	.
.	12c#/	.	.	.	.
.	12A/J)	.	.	.	.
.	(12f#/L	.	4a\	-łey	.
.	12c#/	.	.	.	.
.	12A/J)	.	.	.	.
.	(12f#/L	.	4a/	ko-	.
.	12c#/	.	.	.	.
.	12A/J)	.	.	.	.
!!LO:PB:g=original
=21	=21	=21	=21	=21	=21
1C#/]	(12e#X/L	.	2g#/	-wień-	.
.	12c#/	.	.	.	.
.	12G#/J)	.	.	.	.
.	(12e#/L	.	.	.	.
.	12c#/	.	.	.	.
.	12G#/J)	.	.	.	.
.	(12e#/L	.	4f#/	-skiey	.
.	12c#/	.	.	.	.
.	12G#/J)	.	.	.	.
.	(12e#/L	.	4g#/	do-	.
.	12c#/	.	.	.	.
.	12G#/J)	.	.	.	.
=22	=22	=22	=22	=22	=22
*^	*	*	*	*	*
2ryy	1FF#\	(12f#/L	.	2b/	-li-	.
.	.	12c#/	.	.	.	.
.	.	12A/J)	.	.	.	.
.	.	(12f#/L	.	.	.	.
.	.	12c#/	.	.	.	.
.	.	12A/J)	.	.	.	.
2F#\	.	(12a/L	.	4a/	-nie	.
.	.	12f#/	.	.	.	.
.	.	12c#/J)	.	.	.	.
.	.	(12a/L	.	4r	.	.
.	.	12f#/	.	.	.	.
.	.	12c#/J)	.	.	.	.
*v	*v	*	*	*	*	*
=23	=23	=23	=23	=23	=23
1BB/	(12g#/L	.	2g#/	śród	.
.	12dn/	.	.	.	.
.	12B/J)	.	.	.	.
.	(12g#/L	.	.	.	.
.	12d/	.	.	.	.
.	12B/J)	.	.	.	.
.	(12g#/L	.	4g#/	tu-	.
.	12d/	.	.	.	.
.	12B/J)	.	.	.	.
.	(12g#/L	.	4g#/	-li-	.
.	12d/	.	.	.	.
.	12B/J)	.	.	.	.
=24	=24	=24	=24	=24	=24
1BB#X/	(12f#/L	.	2.f#/	-pa-	.
.	12d#X/	.	.	.	.
.	12A/J)	.	.	.	.
.	(12f#/L	.	.	.	.
.	12d#/	.	.	.	.
.	12A/J)	.	.	.	.
.	(12f#/L	.	.	.	.
.	12d#/	.	.	.	.
.	12A/J)	.	.	.	.
.	(12f#/L	.	4f#/	-now	.
.	12d#/	.	.	.	.
.	12A/J)	.	.	.	.
=25	=25	=25	=25	=25	=25
1C#/	(12f#/L	.	4f#/	i	.
.	12c#/	.	.	.	.
.	12G#/J)	.	.	.	.
.	(12e#X/L	.	4e#X/	nar-	.
.	12c#/	.	.	.	.
.	12G#/J)	.	.	.	.
.	(12e#/L	.	4.a/	-cy-	.
.	12c#/	.	.	.	.
.	12G#/J)	.	.	.	.
.	(12e#/L	.	.	.	.
.	12B/	.	.	.	.
.	.	.	8g#/	-zów	.
.	12G#/J)	.	.	.	.
=26	=26	=26	=26	=26	=26
*^	*	*	*	*	*
[2C#/	2FF#\	(12e#X/L	.	2g#/	pły-	.
.	.	12B/	.	.	.	.
.	.	12G#/J)	.	.	.	.
.	.	(12e#/L	.	.	.	.
.	.	12B/	.	.	.	.
.	.	12G#/J)	.	.	.	.
!	!LO:N:vis=1	!	!	!	!	!
4F#/	2C#\]	(12f#/L	.	4f#/	-nie	.
.	.	12A/	.	.	.	.
.	.	12F#/J)	.	.	.	.
4E/	.	(12f#/L	.	4r	.	.
.	.	12c#/	.	.	.	.
.	.	12A#X/J)	.	.	.	.
*v	*v	*	*	*	*	*
=27	=27	=27	=27	=27	=27
2D#/ 2BB/	(12f#/L	.	2f#/	u	.
.	12d#/	.	.	.	.
.	12B/J)	.	.	.	.
.	(12f#/L	.	.	.	.
.	12d#/	.	.	.	.
.	12B/J)	.	.	.	.
!	!	!	!LO:N:vis=4	!	!
4BB/	(12b/L	.	4.b/	nóg	.
.	12fn/	.	.	.	.
.	12dn/J)	.	.	.	.
4G#/ 4GGn/	(12b/L	.	.	.	.
.	12f/	.	.	.	.
.	.	.	8b/	Lit-	.
.	12d/J)	.	.	.	.
!!LO:LB:g=original
=28	=28	=28	=28	=28	=28
2FF#\	(12b/L	.	2b/	-win-	.
.	12f#/	.	.	.	.
.	12c#/J)	.	.	.	.
.	(12b/L	.	.	.	.
.	12f#/	.	.	.	.
.	12c#/J)	.	.	.	.
4F#\	(12a#X/L	.	4a#X/	-ki	.
.	12f#/	.	.	.	.
.	12c#/J)	.	.	.	.
4E\	(12an/L	.	4a#/	kwiat	.
.	12f#/	.	.	.	.
.	12c#/J)	.	.	.	.
=29	=29	=29	=29	=29	=29
2D#/ 2BB/	(12a/L	.	2an/	na-	.
.	12f#/	.	.	.	.
.	12B/J)	.	.	.	.
.	(12a/L	.	.	.	.
.	12f#/	.	.	.	.
.	12B/J)	.	.	.	.
4BB/	(12ccn/L	.	4.ccn\	-szych	.
.	12a/	.	.	.	.
.	12B/J)	.	.	.	.
4D#/ 4DD#/	(12b/L	.	.	.	.
.	12f#/	.	.	.	.
.	.	.	8b\	mło-	.
.	12B/J)	.	.	.	.
=30	=30	=30	=30	=30	=30
*^	*	*	*	*	*
2D#/	1EE\	(12an/L	.	2an/	-dzia-	.
.	.	12f#/	.	.	.	.
.	.	12B/J)	.	.	.	.
.	.	(12a/L	.	.	.	.
.	.	12f#/	.	.	.	.
.	.	12B/J)	.	.	.	.
2E/	.	(12gn/L	.	4gn/	-nów,	.
.	.	12e/	.	.	.	.
.	.	12B/J)	.	.	.	.
.	.	(12g/L	.	4r	.	.
.	.	12e/	.	.	.	.
.	.	12B/J)	.	.	.	.
=31	=31	=31	=31	=31	=31	=31
1BB/	1EE\	(12b/L	.	2b/	od	.
.	.	12gn/	.	.	.	.
.	.	12B/J)	.	.	.	.
.	.	(12b/L	.	.	.	.
.	.	12g/	.	.	.	.
.	.	12B/J)	.	.	.	.
.	.	(12an/L	.	4an/	róż	.
.	.	12f#/	.	.	.	.
.	.	12B/J)	.	.	.	.
.	.	(12g/L	.	4gn/	kraś-	.
.	.	12e/	.	.	.	.
.	.	12B/J)	.	.	.	.
=32	=32	=32	=32	=32	=32	=32
1BB/	1BBB\	(12f#/L	.	2.f#/	-niey-	.
.	.	12d#/	.	.	.	.
.	.	12B/J)	.	.	.	.
.	.	(12b/L	.	.	.	.
.	.	12f#/)	.	.	.	.
.	.	12e/J	.	.	.	.
.	.	(12d#/L	.	.	.	.
.	.	12B/)	.	.	.	.
.	.	12F#/J	.	.	.	.
.	.	(12f#/L	.	4f#/	-szy	.
.	.	12d#/)	.	.	.	.
.	.	12B/J	.	.	.	.
=33	=33	=33	=33	=33	=33	=33
2GG#/	1BBB\	12e#X/L	.	4e#X/	i	.
.	.	12c##X/	.	.	.	.
.	.	12B/J	.	.	.	.
.	.	12e#/L	.	4e#/	od	.
.	.	12c##/	.	.	.	.
.	.	12B/J	.	.	.	.
4AA/	.	12f#/L	.	4f#/	tu-	.
.	.	12d#/	.	.	.	.
.	.	12B/J	.	.	.	.
4C##X/	.	12g#/L	.	4g#/	-li-	.
.	.	12e#/	.	.	.	.
.	.	12B/J	.	.	.	.
=34	=34	=34	=34	=34	=34	=34
2D#/	1BBB\	(12a/L	.	2a/	-pa-	.
.	.	12f#/)	.	.	.	.
.	.	12B/J	.	.	.	.
.	.	(12a/L	.	.	.	.
.	.	12f#/	.	.	.	.
.	.	12B/J)	.	.	.	.
2C#/	.	(12a#X/L	.	2a#X/	-nów;	.
.	.	12f##X/	.	.	.	.
!	!	!LO:TX:b:t=c	!	!	!	!
.	.	12B/J)	.	.	.	.
.	.	(12a#/L	.	.	.	.
.	.	12f##/	.	.	.	.
.	.	12c#/J)	.	.	.	.
*v	*v	*	*	*	*	*
!!LO:LB:g=original
=35	=35	=35	=35	=35	=35
2BB/ 2EE/	(12b/L	.	2b/	Wi-	.
.	12g#/)	.	.	.	.
.	12B/J	.	.	.	.
.	(12b/L	.	.	.	.
.	12g#/	>	.	.	.
.	12B/J)	.	.	.	.
4D#/ 4FF#/	(12a/L	.	4a/	-li-	.
.	12f#/	.	.	.	.
.	12B/J)	.	.	.	.
4E/ 4GG#/	(12g#/L	.	4g#/	-ja	.
.	12e/	.	.	.	.
.	12B/J)	]	.	.	.
=36	=36	=36	=36	=36	=36
*^	*	*	*	*	*
2E/	1AA\	(12ee/L	.	(2ee\	gar-	.
.	.	12cc#/	.	.	.	.
.	.	12e/J)	.	.	.	.
.	.	(12ee/L	>	.	.	.
.	.	12cc#/	.	.	.	.
.	.	12e/J)	.	.	.	.
4E/	.	(12dd#/L	.	4dd#\)	-dzi	.
.	.	12b/	.	.	.	.
.	.	12e/J)	.	.	.	.
4A/	.	(12cc#/L	]	4cc#\	do-	.
.	.	12a/	.	.	.	.
.	.	12e/J)	.	.	.	.
=37	=37	=37	=37	=37	=37	=37
!LO:N:vis=2	!	!	!	!	!	!
2.A/	1BB\	(12b/L	.	2b\	-li-	.
.	.	12f#/	.	.	.	.
.	.	12d#/J)	.	.	.	.
.	.	(12b/L	.	.	.	.
.	.	12f#/	.	.	.	.
.	.	12d#/J)	.	.	.	.
.	.	(12b/L	.	4f#/	-ny	.
.	.	12f#/	.	.	.	.
.	.	12d#/J)	.	.	.	.
4F#/	.	(12a/L	.	4b\	kwia-	.
.	.	12d#/)	.	.	.	.
.	.	12B/J	.	.	.	.
*v	*v	*	*	*	*	*
=38	=38	=38	=38	=38	=38
2D#\	(12a/L	.	2a/	-ta-	.
.	12f#/	.	.	.	.
.	12B/J)	.	.	.	.
.	(12a/L	.	.	.	.
.	12f#/	.	.	.	.
.	12B/J)	.	.	.	.
2E\	(12g#/L	.	4g#/	-mi	.
.	12e/	.	.	.	.
.	12B/J)	.	.	.	.
.	(12b/L	.	4r	.	.
.	12g#/	.	.	.	.
.	12B/J)	.	.	.	.
=39	=39	=39	=39	=39	=39
2E/ 2EE/	(12b/L	.	2b/	bo	.
.	12g#/	.	.	.	.
.	12B/J)	.	.	.	.
.	(12b/L	.	.	.	.
.	12g#/	.	.	.	.
.	12B/J)	.	.	.	.
4F#/ 4FF#/	(12a/L	.	4a/	szu-	.
.	12d#/	.	.	.	.
.	12B/J)	.	.	.	.
4G#/ 4GG#/	(12g#/L	.	4g#/	-ka	.
.	12e/	.	.	.	.
.	12B/J)	.	.	.	.
=40	=40	=40	=40	=40	=40
4A\ 4AA\	(12ee/L	.	(2ee\	Nie-	.
.	12cc#/	.	.	.	.
.	12e/J)	.	.	.	.
4c#\ 4C#\	(12ee/L	.	.	.	.
.	12g#/	.	.	.	.
.	12e/J)	.	.	.	.
2A#X\ 2D#\	(12dd#/L	.	4dd#\)	.	.
.	12a#X/)	.	.	.	.
.	12f##X/J	.	.	.	.
.	12cc#/L	.	4cc#\	-mna	.
.	12a#/	.	.	.	.
.	12f##/J	.	.	.	.
=41	=41	=41	=41	=41	=41
!	!	!	!LO:N:vis=2	!	!
2G#\	12cc#/L	.	4b\	swe-	.
.	12g#/	.	.	.	.
.	12d#/J	.	.	.	.
.	12b/L	.	4b\	-go	.
.	12g#/	.	.	.	.
.	12d#/J	.	.	.	.
4F#\	12a#X/L	.	4b\	o-	.
.	12d#/	.	.	.	.
.	12B/J	.	.	.	.
4F#/ 4AA/	12an/L	.	4a/	-blu-	.
.	12d#/	.	.	.	.
.	12B/J	.	.	.	.
=42	=42	=42	=42	=42	=42
!LO:N:vis=1.	!	!	!	!	!
1E\	12g#/L	.	2a/	-bień-	.
.	12e/	.	.	.	.
.	12B/J	.	.	.	.
.	12g#/L	.	.	.	.
.	12e/	.	.	.	.
.	12B/J	.	.	.	.
.	12g#/L	.	4g#/	-ca,	.
.	12e/	.	.	.	.
.	12G#/J	.	.	.	.
.	12g#/L	.	4r	.	.
.	12e/	.	.	.	.
.	12G#/J	.	.	.	.
!!LO:LB:g=original
=43	=43	=43	=43	=43	=43
!	!	!	!	!	!LO:DY:a
1D#\	(12g#/L	.	2g#/	Lit-	pp
.	12B#X/)	.	.	.	.
.	12G#/J	.	.	.	.
.	(12g#/L	.	.	.	.
.	12B#/)	.	.	.	.
.	12G#/J	.	.	.	.
.	(12f#/L	.	4f#/	-wi-	.
.	12B#/	.	.	.	.
.	12G#/J)	.	.	.	.
.	(12f#/L	.	4g#/	-nce	.
.	12B#/	.	.	.	.
.	12G#/J)	.	.	.	.
=44	=44	=44	=44	=44	=44
1D#/ 1GG#/	(12f#/L	.	(2g#/	nud-	.
.	12B#X/)	.	.	.	.
.	12G#/J	.	.	.	.
.	(12f#/L	.	.	.	.
.	12B#/	.	.	.	.
.	12G#/J)	.	.	.	.
.	(12f#/L	.	4d#/)	-no	.
.	12B#/	.	.	.	.
.	12G#/J)	.	.	.	.
.	(12f#/L	.	4e/	.	.
.	12B#/)	.	.	.	.
.	12G#/J	.	.	.	.
=45	=45	=45	=45	=45	=45
1BB#X/	(12f#/L	.	4f#/	mię-	.
.	12d#/	.	.	.	.
.	12G#/J)	.	.	.	.
.	(12f##X/L	.	4f##X/	-dzy	.
.	12d#/	.	.	.	.
.	12G#/J)	.	.	.	.
.	(12g#/L	.	4.g#/	Li-	.
.	12d#/	.	.	.	.
.	12G#/J)	.	.	.	.
.	(12f##/L	.	.	.	.
.	12d#/	.	.	.	.
.	.	.	8d#/	-twi-	.
.	12G#/J)	.	.	.	.
=46	=46	=46	=46	=46	=46
1C#/	(12f#/L	.	2f#/	-na-	.
.	12d#/	.	.	.	.
.	12G#/J)	.	.	.	.
.	(12f#/L	.	.	.	.
.	12d#/	.	.	.	.
.	12G#/J)	.	.	.	.
.	(12e/L	.	4e/	-mi	.
.	12c#/	.	.	.	.
.	12G#/J)	.	.	.	.
.	(12e/L	.	4r	.	.
.	12c#/	.	.	.	.
.	12G#/J)	.	.	.	.
=47	=47	=47	=47	=47	=47
1AA/	(12g#/L	.	2a/	bo	.
.	12c#/	.	.	.	.
.	12F#/J)	.	.	.	.
.	(12g#/L	.	.	.	.
.	12c#/	.	.	.	.
.	12F#/J)	.	.	.	.
.	(12f#/L	.	4f#/	u	.
.	12c#/	.	.	.	.
.	12F#/J)	.	.	.	.
.	(12f#/L	.	4a/	ko-	.
.	12c#/	.	.	.	.
.	12F#/J)	.	.	.	.
=48	=48	=48	=48	=48	=48
1AA#X/	12g#/L	.	2g#/	-cha-	.
.	12c#/	.	.	.	.
.	12F#/J	.	.	.	.
.	12g#/L	.	.	.	.
.	12c#/	.	.	.	.
.	12F#/J	.	.	.	.
.	12f#/L	.	4f#/	-ła	.
.	12c#/	.	.	.	.
.	12F#/J	.	.	.	.
.	12e/L	.	4cc#\	Ob-	.
.	12c#/	.	.	.	.
.	12F#/J	.	.	.	.
=49	=49	=49	=49	=49	=49
2BB/	12d#/L	.	(4cc#\	-ce-	.
.	12B/	.	.	.	.
.	12F#/J	.	.	.	.
.	12d#/L	.	4b\)	.	.
.	12B/	.	.	.	.
.	12F#/J	.	.	.	.
2BB/ 2BBB/	12d#/L	.	4a/	-go	.
.	12B/	.	.	.	.
.	12F#/J	.	.	.	.
.	12d#/L	.	4d#/	mło-	.
.	12B/	.	.	.	.
.	12F#/J	.	.	.	.
!!LO:LB:g=original
=50	=50	=50	=50	=50	=50
2BB/ 2EE/	(12e/L	.	2f#/	-dzień-	.
.	12B/	.	.	.	.
.	12A/J)	.	.	.	.
.	(12G#/L	.	.	.	.
.	12B/	.	.	.	.
.	12e/J)	.	.	.	.
*Xtuplet	*	*	*	*	*
8qqE\	.	.	.	.	.
(12e\L	8g#/	.	4e/	-ca.	.
12B\	.	.	.	.	.
.	8r	.	.	.	.
12G#\J)	.	.	.	.	.
(12e\L	4gg#\ 4g#\	.	4r	.	.
12B\	.	.	.	.	.
12A\J)	.	.	.	.	.
=51	=51	=51	=51	=51	=51
*^	*	*	*	*	*
12rc	2D#\	(2gg#/ (2g#/	.	1r	.	.
12G#/L	.	.	.	.	.	.
12B#X/J	.	.	.	.	.	.
!LO:TX:t=P:problem=mixed beam	!	!	!	!	!	!
12f#>\L	.	.	.	.	.	.
12B#/	.	.	.	.	.	.
12G#/J	.	.	.	.	.	.
12rc	2C#\	8ff#/ 8f#/))	.	.	.	.
12A/L	.	.	.	.	.	.
.	.	8r	.	.	.	.
12c#/J	.	.	.	.	.	.
!LO:TX:t=P:problem=mixed beam	!	!	!	!	!	!
12f#>\L	.	4aa/ 4a/	.	.	.	.
12c#/	.	.	.	.	.	.
12A/J	.	.	.	.	.	.
=52	=52	=52	=52	=52	=52	=52
12rc	2BB#X\	(2gg#/ 2g#/	.	1r	.	.
12G#/L	.	.	.	.	.	.
12d#/J	.	.	.	.	.	.
12f#>\L	.	.	.	.	.	.
!LO:TX:t=P:problem=mixed beam	!	!	!	!	!	!
12d#/	.	.	.	.	.	.
12B/J	.	.	.	.	.	.
12rc	2rEE	(>4dd#/ 4d#/)	.	.	.	.
12B#X/L	.	.	.	.	.	.
12G#/J	.	.	.	.	.	.
12rc	.	4ee/ 4e/	.	.	.	.
12c#/L	.	.	.	.	.	.
12G#/J	.	.	.	.	.	.
=53	=53	=53	=53	=53	=53	=53
12rc	2rEE	4ff#/ 4f#/	.	1r	.	.
12d#/L	.	.	.	.	.	.
12G#/J	.	.	.	.	.	.
12rc	.	4ff##X/ 4f##X/	.	.	.	.
12d#/L	.	.	.	.	.	.
12G#/J	.	.	.	.	.	.
12rc	4rEE	4gg#/ 4g#/	.	.	.	.
12e/L	.	.	.	.	.	.
12G#/J	.	.	.	.	.	.
12rc	4GG#\	4dd#/ 4d#/)	.	.	.	.
12B#X/L	.	.	.	.	.	.
12G#/J	.	.	.	.	.	.
=54	=54	=54	=54	=54	=54	=54
12rc	2C#\	2ff#/ 2f#/	.	1r	.	.
12G#/L	.	.	.	.	.	.
12B#X/J	.	.	.	.	.	.
12d#/L	.	.	.	.	.	.
12B#/	.	.	.	.	.	.
12G#/J	.	.	.	.	.	.
12rc	4CC#\	4ee/ 4e/	.	.	.	.
12G#/L	.	.	.	.	.	.
12c#/J	.	.	.	.	.	.
12e/L	4rEE	4r	.	.	.	.
12c#/	.	.	.	.	.	.
12G#/J	.	.	.	.	.	.
*v	*v	*	*	*	*	*
=55	=55	=55	=55	=55	=55
2C#/ 2FF#/	12r	.	2g#/	bo	.
.	12F#/L	.	.	.	.
.	12c#/J	.	.	.	.
.	12g#/L	.	.	.	.
.	12c#/	.	.	.	.
.	12F#/J	.	.	.	.
4A\ 4F#\	12r	.	4f#/	u-	.
.	12F#/L	.	.	.	.
.	12c#/J	.	.	.	.
4r	12f#/L	.	4a/	-ko-	.
.	12c#/	.	.	.	.
.	12F#/J	.	.	.	.
!!LO:LB:g=original
=56	=56	=56	=56	=56	=56
1AA#X/	12r	.	2g#/	-cha-	.
.	12F#/L	.	.	.	.
.	12c#/J	.	.	.	.
.	12g#/L	.	.	.	.
.	12c#/	.	.	.	.
.	12F#/J	.	.	.	.
.	12f#/L	.	4f#/	-ła	.
.	12c#/	.	.	.	.
.	12F#/J	.	.	.	.
.	12e/L	.	4cc#\	Ob-	.
.	12c#/	.	.	.	.
.	12F#/J	.	.	.	.
=57	=57	=57	=57	=57	=57
2AA/	12d#/L	.	(4dd#\	-ce-	.
.	12B/	.	.	.	.
.	12F#/J	.	.	.	.
.	12d#/L	.	4cc#\)	.	.
.	12B/	.	.	.	.
.	12F#/J	.	.	.	.
2BB/ 2BBB/	12d#/L	.	4a/	-go	.
.	12B/	.	.	.	.
.	12F#/J	.	.	.	.
.	12d#/L	.	4f#/	mło-	.
.	12B/	.	.	.	.
.	12F#/J	.	.	.	.
=58	=58	=58	=58	=58	=58
2BB/	12f#/L	.	2f#/	-dzień-	.
.	12d#/	.	.	.	.
.	12A/J	.	.	.	.
.	12f#/L	.	.	.	.
.	12d#/	.	.	.	.
.	12A/J	.	.	.	.
4E\	12e/L	.	4e/	-ca.	.
.	12B/	.	.	.	.
.	12G#/J	.	.	.	.
12e\L	4gg#\ 4g#\	.	4r	.	.
12B\	.	.	.	.	.
12G#\J	.	.	.	.	.
=59	=59	=59	=59	=59	=59
*	*2\right	*	*	*	*
12C#\L	2gg#\ 2g#\	.	1r	.	.
12G#\	.	.	.	.	.
12c#\J	.	.	.	.	.
12e\L	.	.	.	.	.
12c#\	.	.	.	.	.
12G#\J	.	.	.	.	.
12C#\L	4ccc#\ 4cc#\	.	.	.	.
12G#\	.	.	.	.	.
12c#\J	.	.	.	.	.
12e\L	4ddd#\ 4dd#\	.	.	.	.
12c#\	.	.	.	.	.
12G#\J	.	.	.	.	.
=60	=60	=60	=60	=60	=60
12C#\L	4.eee\ 4.ee\	.	1r	.	.
12G#\	.	.	.	.	.
12c#\J	.	.	.	.	.
12e\L	.	.	.	.	.
12c#\	.	.	.	.	.
.	8ddd#\ 8dd#\	.	.	.	.
12G#\J	.	.	.	.	.
12C#\L	4ccc#\ 4cc#\	.	.	.	.
12A\	.	.	.	.	.
12c#\J	.	.	.	.	.
12f#\L	4r	.	.	.	.
12c#\	.	.	.	.	.
12A\J	.	.	.	.	.
=61	=61	=61	=61	=61	=61
12C#\L	8eee\L 8ee\	.	1r	.	.
12G#\	.	.	.	.	.
.	8fff#\ 8ff#\	.	.	.	.
12c#\J	.	.	.	.	.
12e\L	8eee\ 8ee\	.	.	.	.
12c#\	.	.	.	.	.
.	8ddd#\J 8dd#\	.	.	.	.
12G#\J	.	.	.	.	.
12C#\L	4ccc#\ 4cc#\	.	.	.	.
12G#\	.	.	.	.	.
12c#\J	.	.	.	.	.
12e\L	4ggg#\ 4gg#\	.	.	.	.
12c#\	.	.	.	.	.
12G#\J	.	.	.	.	.
!!LO:PB:g=original
=62	=62	=62	=62	=62	=62
12E\L	(2eee\ 2bb\ 2gg#\ (2ee\	.	1r	.	.
12G#\	.	.	.	.	.
12B\J	.	.	.	.	.
12e\L	.	.	.	.	.
12B\	.	.	.	.	.
12G#\J	.	.	.	.	.
12AA/L	4ccc#\ 4aa\))	.	.	.	.
12E/	.	.	.	.	.
12A/J	.	.	.	.	.
12c#\L	4r	.	.	.	.
12A\	.	.	.	.	.
12E\J	.	.	.	.	.
=63	=63	=63	=63	=63	=63
12C#\L	(2gg#\ 2g#\	.	1r	.	.
12E\	.	.	.	.	.
12G#\J	.	.	.	.	.
12c#\L	.	.	.	.	.
12G#\	.	.	.	.	.
12E\J	.	.	.	.	.
12C#\L	4.ccc#\ 4.cc#\	.	.	.	.
12G#\	.	.	.	.	.
12c#\J	.	.	.	.	.
12e\L	.	.	.	.	.
12c#\	.	.	.	.	.
.	8ddd#\ 8dd#\)	.	.	.	.
12G#\J	.	.	.	.	.
=64	=64	=64	=64	=64	=64
12AA#X\L	(4.eee\ 4.ee\	.	1r	.	.
12E\	.	.	.	.	.
12F##X\J	.	.	.	.	.
12c#\L	.	.	.	.	.
12F##\	.	.	.	.	.
.	8ddd#\ 8dd#\	.	.	.	.
12E\J	.	.	.	.	.
12AA#\L	8ccc#\ 8cc#\)	.	.	.	.
12E\	.	.	.	.	.
.	8r	.	.	.	.
12F#X\J	.	.	.	.	.
12c#\L	4ccc#\ 4cc#\	.	.	.	.
12F#\	.	.	.	.	.
12E\J	.	.	.	.	.
=65	=65	=65	=65	=65	=65
12BB\L	(4bb\ 4b\	.	1r	.	.
12E\	.	.	.	.	.
12G#\J	.	.	.	.	.
12B\L	8aa#X\L 8a#X\	.	.	.	.
12G#\	.	.	.	.	.
.	8bb\J 8b\	.	.	.	.
12E\J	.	.	.	.	.
12BB\L	4ccc#\ 4cc#\	.	.	.	.
12D#\	.	.	.	.	.
12A\J	.	.	.	.	.
12B\L	8bb\ 8b\)	.	.	.	.
12A\	.	.	.	.	.
.	8r	.	.	.	.
12F#\J	.	.	.	.	.
=66	=66	=66	=66	=66	=66
12E\L	(2bb\ 2b\	.	1r	.	.
12G#\	.	.	.	.	.
12B\J	.	.	.	.	.
12e\L	.	.	.	.	.
12B\	.	.	.	.	.
12G#\J	.	.	.	.	.
!	!LO:TX:t=P:problem=mixed beam	!	!	!	!
2r	12ee\ 12g#\)	.	.	.	.
.	12e/L	.	.	.	.
.	12B/J	.	.	.	.
.	(12a/L	.	.	.	.
.	12f#/	.	.	.	.
!	!	!	!LO:TX:a:t=1mo V.	!	!
.	12B/J)	.	.	.	.
=67:|!	=67:|!	=67:|!	=67:|!	=67:|!	=67:|!
12E\L	2bb\ 2b\	.	1r	.	.
12G#\	.	.	.	.	.
12B\J	.	.	.	.	.
12e\L	.	.	.	.	.
12B\	.	.	.	.	.
12G#\J	.	.	.	.	.
8E\	8ee\	.	.	.	.
8r	8r	.	.	.	.
!	!LO:N:vis=8	!	!	!	!
8.r	8.r	.	.	.	.
16G#\ 16E\	16eee\ 16ee\	.	.	.	.
=68	=68	=68	=68	=68	=68
!	!	!	!LO:TX:a:t=2do V	!	!
2G#\ 2E\	2eee\ 2ee\	>	1r	.	.
4B\ 4G#\	4ee/ 4e/	]	.	.	.
4ryy	4r	.	.	.	.
==	==	==	==	==	==
*-	*-	*-	*-	*-	*-
!!!system-decoration: s1{s2,s3}
!!!RDF**kern: > = above
!!!RDF**kern: < = below
!!!EED: Leszek Kubiak
!!!EEV: 2021-04-20
!!!ENC: Mateusz Solarz
!!!END: 2021-03-31
